icon-themes/elementary_svg/cmd/lc_wrapcontour.svg

<svg height="24" width="24" xmlns="http://www.w3.org/2000/svg" xmlns:xlink="http://www.w3.org/1999/xlink"><linearGradient id="a" gradientTransform="matrix(1.4147061 0 0 -1.5157566 .745365 24.778941)" gradientUnits="userSpaceOnUse" x1="6.689" x2="6.571429" y1="5.48" y2=".5"><stop offset="0" stop-color="#cd9ef7"/><stop offset="1" stop-color="#a56de2"/></linearGradient><radialGradient id="b" cx="-1.598504" cy="-37.097179" gradientTransform="matrix(-2.8642857 .00000019 -.00000015 -2.1857141 8.778565 -83.012398)" gradientUnits="userSpaceOnUse" r="10" xlink:href="#c"/><linearGradient id="c"><stop offset="0" stop-color="#737373"/><stop offset=".26238" stop-color="#636363"/><stop offset=".704952" stop-color="#4b4b4b"/><stop offset="1" stop-color="#3f3f3f"/></linearGradient><radialGradient id="d" cx="-1.473815" cy="-42.064499" gradientTransform="matrix(-2.8642857 .00000019 -.00000015 -2.1857141 8.778565 -95.012398)" gradientUnits="userSpaceOnUse" r="10" xlink:href="#c"/><radialGradient id="e" cx="-1.448878" cy="-38.927242" gradientTransform="matrix(-2.8642857 .00000019 -.00000015 -2.1857141 8.778565 -87.012398)" gradientUnits="userSpaceOnUse" r="10" xlink:href="#c"/><radialGradient id="f" cx="-1.548628" cy="-40.659271" gradientTransform="matrix(-2.8642857 .00000019 -.00000015 -2.1857141 8.778565 -91.012398)" gradientUnits="userSpaceOnUse" r="10" xlink:href="#c"/><g stroke-width="1.428571" transform="matrix(.49497475 .49497475 -.49497475 .49497475 23.917279 -1.862403)"><path d="m.44412973 27.546556 11.10798427.0011.0061-11.104277-11.10806923-.0011z" fill="url(#a)" stroke="#7239b3" stroke-linecap="round" stroke-linejoin="round" stroke-opacity=".75"/><path d="m1.9453125 26.830357-.092017-8.950817 8.9014973.04564" fill="none" opacity=".3" stroke="#fff"/></g><path d="m22 4.4995548c0-.269086-.576667-.499541-1.25-.499541h-17.5c-.673332 0-1.25.230455-1.25.499541v.999082c0 .269086.576668.499541 1.25.499541.0028.0041 17.5 0 17.5 0 .673333 0 1.25-.230455 1.25-.499541z" fill="#fff" opacity=".35"/><path d="m2.5000001 3.5000018v.9980469.00195c6.333334-.00999 12.6666679-.015401 18.9999999-.025391v-.9746059z" fill="none" stroke="url(#d)" stroke-linecap="round" stroke-linejoin="round"/><path d="m8 12.001836h-6v1.998164h6z" fill="#fff" opacity=".35"/><path d="m2.5000001 11.500002v.998047.002l4.9999999-.02539v-.974606h-4.9999999z" fill="none" stroke="url(#e)" stroke-linecap="round" stroke-linejoin="round"/><path d="m11 8.001836h-9v1.998164h9z" fill="#fff" opacity=".35"/><path d="m2.5000001 7.5000018v.9980469.00195l7.9999999-.025391v-.9746059z" fill="none" stroke="url(#f)" stroke-linecap="round" stroke-linejoin="round"/><path d="m11 16.001836h-9v1.998164h9z" fill="#fff" opacity=".35"/><path d="m2.5000001 15.500002v.998047.002l7.9999999-.02539v-.974606h-7.9999999z" fill="none" stroke="url(#b)" stroke-linecap="round" stroke-linejoin="round"/><path d="m22 20.001836h-20v1.998164h20z" fill="#fff" opacity=".35"/><g fill="none" stroke-linecap="round" stroke-linejoin="round" transform="translate(0 4)"><path d="m2.5000001 15.500002v.998047.002c6.333334-.01 12.6666679-.0154 18.9999999-.02539v-.974606h-18.9999999z" stroke="url(#b)"/><path d="m2.5 15.500002v.998047.002c6.333334-.01 12.666668-.0154 19-.02539v-.974606h-19z" opacity=".1" stroke="#000"/></g></svg>

<?xml version="1.0" encoding="UTF-8" standalone="no"?>
<svg
   xmlns:dc="http://purl.org/dc/elements/1.1/"
   xmlns:cc="http://creativecommons.org/ns#"
   xmlns:rdf="http://www.w3.org/1999/02/22-rdf-syntax-ns#"
   xmlns:svg="http://www.w3.org/2000/svg"
   xmlns="http://www.w3.org/2000/svg"
   xmlns:xlink="http://www.w3.org/1999/xlink"
   xmlns:sodipodi="http://sodipodi.sourceforge.net/DTD/sodipodi-0.dtd"
   xmlns:inkscape="http://www.inkscape.org/namespaces/inkscape"
   height="24"
   width="24"
   version="1.1"
   id="svg43"
   sodipodi:docname="lc_wrapcontour.svg"
   inkscape:version="0.92.3 (unknown)"
   inkscape:export-filename="/home/rizmut/Dokumen/Rizmut/Github/libreoffice-style-elementary/images_elementary/cmd/lc_wrapcontour.png"
   inkscape:export-xdpi="96"
   inkscape:export-ydpi="96">
  <metadata
     id="metadata49">
    <rdf:RDF>
      <cc:Work
         rdf:about="">
        <dc:format>image/svg+xml</dc:format>
        <dc:type
           rdf:resource="http://purl.org/dc/dcmitype/StillImage" />
        <dc:title></dc:title>
      </cc:Work>
    </rdf:RDF>
  </metadata>
  <defs
     id="defs47">
    <linearGradient
       id="d-6"
       gradientTransform="matrix(1.4147061,0,0,-1.5157566,0.74536545,24.778941)"
       gradientUnits="userSpaceOnUse"
       x1="6.6890001"
       x2="6.5714288"
       y1="5.48"
       y2="0.5">
      <stop
         offset="0"
         stop-color="#cd9ef7"
         id="stop5006" />
      <stop
         offset="1"
         stop-color="#a56de2"
         id="stop5008" />
    </linearGradient>
    <radialGradient
       inkscape:collect="always"
       xlink:href="#a"
       id="radialGradient5783"
       gradientUnits="userSpaceOnUse"
       gradientTransform="matrix(-2.8642857,1.9e-7,-1.5e-7,-2.1857141,8.778565,-83.012398)"
       cx="-1.598504"
       cy="-37.097179"
       r="10" />
  </defs>
  <sodipodi:namedview
     pagecolor="#ffffff"
     bordercolor="#666666"
     borderopacity="1"
     objecttolerance="10"
     gridtolerance="10"
     guidetolerance="10"
     inkscape:pageopacity="0"
     inkscape:pageshadow="2"
     inkscape:window-width="1366"
     inkscape:window-height="706"
     id="namedview45"
     showgrid="true"
     inkscape:zoom="32"
     inkscape:cx="8.7097344"
     inkscape:cy="13.679545"
     inkscape:window-x="0"
     inkscape:window-y="0"
     inkscape:window-maximized="1"
     inkscape:current-layer="g5773"
     showguides="false"
     inkscape:snap-global="true">
    <inkscape:grid
       type="xygrid"
       id="grid4559" />
  </sodipodi:namedview>
  <linearGradient
     id="a">
    <stop
       offset="0"
       stop-color="#737373"
       id="stop2" />
    <stop
       offset=".26238"
       stop-color="#636363"
       id="stop4" />
    <stop
       offset=".704952"
       stop-color="#4b4b4b"
       id="stop6" />
    <stop
       offset="1"
       stop-color="#3f3f3f"
       id="stop8" />
  </linearGradient>
  <radialGradient
     id="b"
     cx="-1.473815"
     cy="-42.064499"
     gradientTransform="matrix(-2.8642857,1.9e-7,-1.5e-7,-2.1857141,8.778565,-95.012398)"
     gradientUnits="userSpaceOnUse"
     r="10"
     xlink:href="#a" />
  <radialGradient
     id="c"
     cx="-1.448878"
     cy="-38.927242"
     gradientTransform="matrix(-2.8642857,1.9e-7,-1.5e-7,-2.1857141,8.778565,-87.012398)"
     gradientUnits="userSpaceOnUse"
     r="10"
     xlink:href="#a" />
  <radialGradient
     id="d"
     cx="-1.548628"
     cy="-40.659271"
     gradientTransform="matrix(-2.8642857,1.9e-7,-1.5e-7,-2.1857141,8.778565,-91.012398)"
     gradientUnits="userSpaceOnUse"
     r="10"
     xlink:href="#a" />
  <radialGradient
     id="e"
     cx="-1.598504"
     cy="-37.097179"
     gradientTransform="matrix(-2.8642857,1.9e-7,-1.5e-7,-2.1857141,8.778565,-83.012398)"
     gradientUnits="userSpaceOnUse"
     r="10"
     xlink:href="#a" />
  <g
     id="g5773"
     transform="translate(0,-2)">
    <g
       transform="matrix(0.49497475,0.49497475,-0.49497475,0.49497475,23.917279,0.13759745)"
       id="g5735">
      <path
         sodipodi:nodetypes="ccccc"
         inkscape:connector-curvature="0"
         style="fill:url(#d-6);stroke:#7239b3;stroke-width:1.42857142;stroke-linecap:round;stroke-linejoin:round;stroke-miterlimit:4;stroke-dasharray:none;stroke-opacity:0.75"
         d="m 0.44412973,27.546556 11.10798427,0.0011 0.0061,-11.104277 -11.10806923,-0.0011 z"
         id="path5011" />
      <path
         sodipodi:nodetypes="ccc"
         inkscape:connector-curvature="0"
         style="opacity:0.3;fill:none;stroke:#ffffff;stroke-width:1.42857146;stroke-miterlimit:4;stroke-dasharray:none"
         d="m 1.9453125,26.830357 -0.092017,-8.950817 8.9014973,0.04564"
         id="path5017" />
    </g>
    <g
       id="g41"
       transform="translate(0,2)">
      <path
         style="opacity:0.35;fill:#ffffff"
         inkscape:connector-curvature="0"
         id="path15"
         d="m 22,4.4995548 c 0,-0.269086 -0.576667,-0.499541 -1.25,-0.499541 H 3.25 c -0.673332,0 -1.25,0.230455 -1.25,0.499541 v 0.999082 c 0,0.269086 0.576668,0.499541 1.25,0.499541 0.0028,0.0041 17.5,0 17.5,0 0.673333,0 1.25,-0.230455 1.25,-0.499541 z"
         sodipodi:nodetypes="sssssccss" />
      <path
         style="fill:none;stroke:url(#b);stroke-linecap:round;stroke-linejoin:round"
         inkscape:connector-curvature="0"
         id="path17"
         d="m 2.5000001,3.5000018 v 0.9980469 0.00195 C 8.8333341,4.4900087 15.166668,4.4845977 21.5,4.4746077 V 3.5000018 Z"
         sodipodi:nodetypes="cccccc" />
      <path
         style="opacity:0.35;fill:#ffffff"
         inkscape:connector-curvature="0"
         id="path21"
         d="M 8,12.001836 H 2 V 14 h 6 z"
         sodipodi:nodetypes="ccccc" />
      <path
         style="fill:none;stroke:url(#c);stroke-linecap:round;stroke-linejoin:round"
         inkscape:connector-curvature="0"
         id="path23"
         d="m 2.5000001,11.500002 v 0.998047 0.002 L 7.5,12.474659 V 11.500053 H 2.5000001 Z"
         sodipodi:nodetypes="ccccccc" />
      <path
         style="opacity:0.35;fill:#ffffff"
         inkscape:connector-curvature="0"
         id="path27"
         d="M 11,8.001836 H 2 V 10 h 9 z"
         sodipodi:nodetypes="ccccc" />
      <path
         style="fill:none;stroke:url(#d);stroke-linecap:round;stroke-linejoin:round"
         inkscape:connector-curvature="0"
         id="path29"
         d="m 2.5000001,7.5000018 v 0.9980469 0.00195 L 10.5,8.4746077 V 7.5000018 Z"
         sodipodi:nodetypes="cccccc" />
      <path
         style="opacity:0.35;fill:#ffffff"
         inkscape:connector-curvature="0"
         id="path33"
         d="M 11,16.001836 H 2 V 18 h 9 z"
         sodipodi:nodetypes="ccccc" />
      <path
         d="m 2.5000001,15.500002 v 0.998047 0.002 L 10.5,16.474659 V 15.500053 H 2.5000001 Z"
         id="path35"
         inkscape:connector-curvature="0"
         style="fill:none;stroke:url(#e);stroke-linecap:round;stroke-linejoin:round"
         sodipodi:nodetypes="ccccccc" />
      <path
         sodipodi:nodetypes="ccccc"
         d="M 22,20.001836 H 2 V 22 h 20 z"
         id="path870"
         inkscape:connector-curvature="0"
         style="opacity:0.35;fill:#ffffff" />
      <g
         id="g5779"
         style="fill:none;stroke-linecap:round;stroke-linejoin:round"
         transform="translate(0,4)">
        <path
           d="m 2.5000001,15.500002 v 0.998047 0.002 c 6.333334,-0.01 12.6666679,-0.0154 18.9999999,-0.02539 V 15.500053 H 2.5000001 Z"
           id="path5775"
           inkscape:connector-curvature="0"
           style="stroke:url(#radialGradient5783)" />
        <path
           d="m 2.5,15.500002 v 0.998047 0.002 c 6.333334,-0.01 12.666668,-0.0154 19,-0.02539 v -0.974606 h -19 z"
           id="path5777"
           inkscape:connector-curvature="0"
           style="opacity:0.1;stroke:#000000" />
      </g>
    </g>
  </g>
</svg>
